svgs/sharp-thin/fire-hydrant.svg

<svg xmlns="http://www.w3.org/2000/svg" viewBox="0 0 384 512"><!--! Font Awesome Pro 6.5.2 by @fontawesome - https://fontawesome.com License - https://fontawesome.com/license (Commercial License) Copyright 2024 Fonticons, Inc. --><path d="M200 0H184V8 32v.2C122.4 36 72.5 83.5 65 144H40 32v16h8H64 80 304h16 24 8V144h-8H319C311.5 83.5 261.6 36 200 32.2V32 8 0zm-8 48c56.4 0 103.1 41.7 110.9 96H81.1C88.9 89.7 135.6 48 192 48zm80 272a80 80 0 1 0 -160 0 80 80 0 1 0 160 0zm-80-64a64 64 0 1 1 0 128 64 64 0 1 1 0-128zM40 496H32v16h8H72 312h32 8V496h-8H320V392h56 8v-8V256v-8h-8H320V192H304v64V384 496H80V384 256 192H64v56H8 0v8V384v8H8 64V496H40zM64 376H16V264H64V376zm256 0V264h48V376H320z"/></svg>

<svg xmlns="http://www.w3.org/2000/svg" viewBox="0 0 384 512"><!--! Font Awesome Pro 6.6.0 by @fontawesome - https://fontawesome.com License - https://fontawesome.com/license (Commercial License) Copyright 2024 Fonticons, Inc. --><path d="M200 0L184 0l0 8 0 24 0 .2C122.4 36 72.5 83.5 65 144l-25 0-8 0 0 16 8 0 24 0 16 0 224 0 16 0 24 0 8 0 0-16-8 0-25 0C311.5 83.5 261.6 36 200 32.2l0-.2 0-24 0-8zm-8 48c56.4 0 103.1 41.7 110.9 96L81.1 144C88.9 89.7 135.6 48 192 48zm80 272a80 80 0 1 0 -160 0 80 80 0 1 0 160 0zm-80-64a64 64 0 1 1 0 128 64 64 0 1 1 0-128zM40 496l-8 0 0 16 8 0 32 0 240 0 32 0 8 0 0-16-8 0-24 0 0-104 56 0 8 0 0-8 0-128 0-8-8 0-56 0 0-56-16 0 0 64 0 128 0 112L80 496l0-112 0-128 0-64-16 0 0 56L8 248l-8 0 0 8L0 384l0 8 8 0 56 0 0 104-24 0zM64 376l-48 0 0-112 48 0 0 112zm256 0l0-112 48 0 0 112-48 0z"/></svg>
